X:1
T:Lobe Den Herren
T:Lobe Den Herren
T:Stralsund Ernewerten Gesangbuch
T:Philip R. McDavid
T:Frame of Light Designs
T:Frame of Light Designs
T:Frame of Light Designs
T:Frame of Light Designs
C:Stralsund Ernewerten Gesangbuch
Z:Philip R. McDavid
Z:Frame of Light Designs
%%score 1 2 3 { ( 4 5 ) | ( 6 7 ) }
L:1/8
M:3/4
K:F
V:1 treble transpose=-2 nm="B♭ Trumpet" snm="B♭ Tpt."
V:2 treble transpose=-2 nm="B♭ Clarinet" snm="B♭ Cl."
V:3 bass nm="Euphonium" snm="Euph."
V:4 treble nm="Organ" snm="Org."
V:5 treble 
V:6 bass 
V:7 bass 
V:1
[K:G] D2 E2 D2 | G3 F E2 | D2 C2 B,2 | C2 C2 B,2 | (E2 D2 C2) | B,6 | D2 E2 D2 | G3 F E2 | %8
 D2 C2 B,2 | C2 C2 B,2 | (E2 D2 C2) | B,6 | G2 A2 G2 | G6 | G2 G2 A2 | G2 EF G2 | F6 | D2 C2 C2 | %18
 B,2 E2 ^D2 | (E4 =D)C | B,6 |] G2 e2 d2 | g3 f e2 | d2 c2 B2 | e2 c2 B2 | (A2 d2 c2) | B6 | %27
 G2 e2 d2 | g3 f e2 | d2 c2 B2 | e2 c2 B2 | (A2 d2 c2) | B6 | d2 d2 g2 | e4 g2- | g2 G2 A2 | %36
 B2 c2 d2 | d6 | d2 g2 f2 | e2 e2 ^d2 | (e4 dc) | B6 |] %42
V:2
[K:G] G2 E2 F2 | G3 D E2 | B,2 C2 G,2 | C2 A,2 E2 | (C2 D4) | G,6 | G2 E2 F2 | G3 D E2 | %8
 B,2 C2 G,2 | C2 A,2 E2 | (C2 D4) | G,6 | G2 F2 G2 | C6 | G2 E2 F2 | G2 A2 BG | D6 | B,2 C2 A,2 | %18
 E2 C2 B,2 | (C4 D2) | G,6 |] z6 | G,2 (GF) (EB,) | DE/F/ G3 G | GE (DC) B,G, | %25
 CA,/B,/ (C/B,/)C/D/ (E/D/)E/F/ | G2 (DC) B,A, | B,4 z2 | G,2 G3 G | DE/F/ G2 (G,/A,/)B,/D/ | %30
 GE (DC) B,D | CA,/B,/ (C/B,/)C/D/ (E/D/)E/F/ | G2 (G,A,) B,C | (DE) FD G=F | %34
 (ED C)A,/B,/ (C/D/)E/F/ | GD (EC) D/E/F | G2 A2 G2 |{G} TF3 E D2 | D4 z2 | E3 E (^DF) | %40
 EC (A,/B,/)C/D/ (E/D/)E/F/ | G6 |] %42
V:3
 A,2 A,2 G,2 | C3 C A,2 | A,2 F,2 F,2 | F,2 G,2 F,2 | (F,2 E,4) | F,6 | A,2 A,2 G,2 | C3 C A,2 | %8
 A,2 F,2 F,2 | F,2 G,2 F,2 | (F,2 E,4) | F,6 | A,2 G,2 A,2 | B,6 | C2 D2 E2 | A,2 B,2 A,F, | C6 | %17
 F,2 F,2 G,2 | F,2 D,2 E,2 | D,2 G,F, E,2 | F,6 |] z6 | F,2 (FE) (DA,) | CD/E/ F3 F | %24
 FD (CB,) A,F, | B,G,/A,/ (B,/A,/)B,/C/ (D/C/)D/E/ | F2 (CB,) A,G, | A,4 z2 | F,2 F3 F | %29
 CD/E/ F2 (F,/G,/)A,/C/ | FD (CB,) A,C | B,G,/A,/ (B,/A,/)B,/C/ (D/C/)D/E/ | F2 (F,G,) A,B, | %33
 (CD) EC F^E | (DC B,)G,/A,/ (B,/C/)D/E/ | FC (DB,) C/D/E | F2 G2 F2 |{F} TE3 D C2 | C4 z2 | %39
 D3 D (^CE) | DB, (G,/A,/)B,/C/ (D/C/)D/E/ | F6 |] %42
V:4
 F2 F2 c2 | [FA]3 [EG] [DF]2 | E2 D2 C2 | D2 E2 F2 | G6 | F6 | F2 F2 c2 | [FA]3 [EG] [DF]2 | %8
w: 1.Praise to the|Lord, the Al-|might- y, the|King of cre-|a-|tion!|O my soul,|praise him, for|
w: 2.Praise to the|Lord, who o'er|all things is|won- drous- ly|reign-|ing,|shel- tering you|un- der his|
 E2 D2 C2 | D2 E2 F2 | G6 | F6 | c2 c2 c2 | d6 | A2 B2 c2 | c2 B2 A2 | G6 | C2 D2 E2 | F2 G2 A2 | %19
w: he is your|health and sal-|va-|tion!|Come, all who|hear;|broth- ers and|sis- ters, draw|near,|join me in|glad a- do-|
w: wings, oh, so|gent- ly sus-|tain-|ing.|Have you not|seen|all that is|need- ful has|been|sent by his|gra- cious or-|
 G6 | F6 |] F2 F2 c2 | [FA]3 [EG] [DF]2 | E2 D2 C2 | D2 E2 F2 | G6 | F6 | F2 F2 c2 | %28
w: ra-|tion!|3.Praise ye the|Lord! O let|all that is|in me a-|dore|Him!|All that hath|
w: dain-|ing?||||||||
 [FA]3 [EG] [DF]2 | E2 D2 C2 | D2 E2 F2 | G6 | F6 | c2 c2 c2 | d6 | A2 B2 c2 | c2 B2 A2 | G6 | %38
w: life and breath,|come now with|prai- ses be-|fore|Him!|Let the a-|men!|Sound from His|peo- ple a-|gain;|
w: ||||||||||
 C2 D2 E2 | F2 G2 A2 | G6 | F6 |] %42
w: Glad- ly for|aye we a-|dore|Him.|
w: ||||
V:5
 C2 D2 C2 | x6 | C2 B,2 A,2 | B,2 B,2 A,2 | (D2 C2 B,2) | A,6 | C2 D2 C2 | x6 | C2 B,2 A,2 | %9
 B,2 B,2 A,2 | (D2 C2 B,2) | A,6 | F2 G2 F2 | F6 | F2 F2 G2 | F2 DE F2 | E6 | C2 B,2 B,2 | %18
 A,2 D2 ^C2 | (D4 =C)B, | A,6 |] C2 D2 C2 | x6 | C2 B,2 A,2 | B,2 B,2 A,2 | ((D2 C2 B,2)) | A,6 | %27
 C2 D2 C2 | x6 | C2 B,2 A,2 | B,2 B,2 A,2 | ((D2 C2 B,2)) | A,6 | F2 G2 F2 | F6 | F2 F2 G2 | %36
 F2 DE F2 | E6 | C2 B,2 B,2 | A,2 D2 ^C2 | ((D4 =C))B, | A,6 |] %42
V:6
 A,2 A,2 G,2 | [F,C]3 [C,C] [D,A,]2 | A,2 F,2 F,2 | F,2 G,2 F,2 | (F,2 E,4) | F,6 | A,2 A,2 G,2 | %7
 [F,C]3 [C,C] [D,A,]2 | A,2 F,2 F,2 | F,2 G,2 F,2 | (F,2 E,4) | F,6 | A,2 G,2 A,2 | B,6 | %14
 C2 B,2 G,2 | A,2 B,2 C2 | C6 | F,2 F,2 G,2 | F,2 D,2 E,2 | (D,2 G,F, E,2) | F,6 |] A,2 A,2 G,2 | %22
 [F,C]3 [C,C] [D,A,]2 | A,2 F,2 F,2 | F,2 G,2 F,2 | ((F,2 E,4)) | F,6 | A,2 A,2 G,2 | %28
 [F,C]3 [C,C] [D,A,]2 | A,2 F,2 F,2 | F,2 G,2 F,2 | ((F,2 E,4)) | F,6 | A,2 G,2 A,2 | B,6 | %35
 C2 B,2 G,2 | A,2 B,2 C2 | C6 | F,2 F,2 G,2 | F,2 D,2 E,2 | ((D,2 G,F, E,2)) | F,6 |] %42
V:7
 F,2 D,2 E,2 | x6 | A,,2 B,,2 F,,2 | B,,2 G,,2 D,2 | (B,,2 C,4) | F,,6 | F,2 D,2 E,2 | x6 | %8
 A,,2 B,,2 F,,2 | B,,2 G,,2 D,2 | (B,,2 C,4) | F,,6 | F,2 E,2 F,2 | B,,6 | F,2 D,2 E,2 | %15
 F,2 G,2 A,F, | C,6 | A,,2 B,,2 G,,2 | D,2 B,,2 A,,2 | (B,,4 C,2) | F,,6 |] F,2 D,2 E,2 | x6 | %23
 A,,2 B,,2 F,,2 | B,,2 G,,2 D,2 | ((B,,2 C,4)) | F,,6 | F,2 D,2 E,2 | x6 | A,,2 B,,2 F,,2 | %30
 B,,2 G,,2 D,2 | ((B,,2 C,4)) | F,,6 | F,2 E,2 F,2 | B,,6 | F,2 D,2 E,2 | F,2 G,2 A,F, | C,6 | %38
 A,,2 B,,2 G,,2 | D,2 B,,2 A,,2 | ((B,,4 C,2)) | F,,6 |] %42

